svgs/sharp-light/blinds-raised.svg

<svg xmlns="http://www.w3.org/2000/svg" viewBox="0 0 512 512"><!--! Font Awesome Pro 6.6.0 by @fontawesome - https://fontawesome.com License - https://fontawesome.com/license (Commercial License) Copyright 2024 Fonticons, Inc. --><path d="M16 0L0 0 0 16 0 80 0 96l16 0 112 0 0 322.7c-18.6 6.6-32 24.4-32 45.3c0 26.5 21.5 48 48 48s48-21.5 48-48c0-20.9-13.4-38.7-32-45.3L160 96l336 0 16 0 0-16 0-64 0-16L496 0 16 0zM32 64l0-32 448 0 0 32L32 64zm96 400a16 16 0 1 1 32 0 16 16 0 1 1 -32 0zM41 160l8-32-33 0L8 160 0 192l33 0 63 0 0-32-55 0zm0 96l8-32-33 0L8 256 0 288l33 0 63 0 0-32-55 0zm151 0l0 32 287 0 33 0-8-32-8-32-33 0 8 32-279 0zm0-96l0 32 287 0 33 0-8-32-8-32-33 0 8 32-279 0z"/></svg>

<svg xmlns="http://www.w3.org/2000/svg" viewBox="0 0 512 512"><!--! Font Awesome Pro 6.4.2 by @fontawesome - https://fontawesome.com License - https://fontawesome.com/license (Commercial License) Copyright 2023 Fonticons, Inc. --><path d="M16 0H0V16 80 96H16 128V418.7c-18.6 6.6-32 24.4-32 45.3c0 26.5 21.5 48 48 48s48-21.5 48-48c0-20.9-13.4-38.7-32-45.3V96H496h16V80 16 0H496 16zM32 64V32H480V64H32zm96 400a16 16 0 1 1 32 0 16 16 0 1 1 -32 0zM41 160l8-32H16L8 160 0 192H33 96V160H41zm0 96l8-32H16L8 256 0 288H33 96V256H41zm151 0v32H479h33l-8-32-8-32H463l8 32H192zm0-96v32H479h33l-8-32-8-32H463l8 32H192z"/></svg>
